!!!OTL: Maria wollt auswandern (Band 1), S. 36
!!!id: P0784
**kern
*clefG2
*k[b-]
*F:
{4c
=1
4f
4f
4g
4cc
=2
8a
8g
4f}
4.r
=3
{8f
=4
4a
8g
8e
4g
8f
8d
=5
2c}
4r
=6
{4c
=7
8c
8f
8f
8f
8g
8g
4cc
=8
2.cc}
=9
{4dd
=10
4cc
4b-
8a
8g
8f
8g
=11
4a
4g
4f}
==
*-
!!!minrhy: 8
!!!meters: 4/4 ]  ZZ[4
!!!cut: Maria wollt auswandern (Band 1), S. 36
!!!reg: Lothringen
!!!trd: PINCK, Louis: Verklingende Weisen, Bd 1, Metz 1928
!!!rhy1: X_  X_X_X_X_  XXX_0_.
!!!rhy2: X  X_XXX_XX  X__0_
!!!key: P0784  08  F 4/4 ]  ZZ[4
!!!mod: HEPTATONIK IONISCH]  AMBITUS[9
!!!kad: 1-551
!!!akz: 123_32-5_-5255_5331_
!!!fot: 'a__b__c__d__
!!!for: 'a__b__c__d__
!!!fok: '^a_^d_/__\__
!! PHRAS[AUFTAKTIG]
!!!fkt: geistliche, religiöse Lieder
!! LOTH VKL
!! PR[12] 2K[10] 2G[20] 3K[0] 3G[0] 4A[5] 4Ü[0] 5A[0] 6K[5] 6G[0]
!! 7K[0] 7G[0] 8A[0] MEHR[0] SI[39] ABS[41] SR[29] SP[10]
!! ST[8] 2k[15] 2g[24] 3k[5] 3g[2] 4d[2] 4ü[0] 5d[0] 6k[0] 6g[0]
!! 7k[0] 7g[0] 8d[0] mehr[0] si[49] dm[-10] sr[39] sp[10]
!! 1F[63] 2F[35] 3F[0] 4F[0] LF[0] 2P[2] 3P[0] 4P[0] TRI[0] DF[3] AB[46]
!! TF[0] U3K[0] U3[0] U4[0] U4Ü[0] U5[10] U6K[0] U6[0] U7K[12] U7[7]
!! N1[26] N2K[0] N2[21] N3K[17] N3[0] N4[7] N4Ü[0] N5[0] N6K[0] N6[0]
!!!n7k: 0] N7[0] O1[0] O2K[0] O2[0] O3K[0] O3[0] HÖ[0
